X: 196
T:Is There A Heart... JaW.195
M:6/8
Q:80
C:...That Never Loved
S:James Winder Ms, Lancashire, 1835-41
R:Air
O:England
A:Wyresdale,Lancashire
H:1/8
Z:vmp.Chris Partington, Aug 2004
K:C
c>dc e2g|g2f d2e|c2c agf|e3 {fe}d2z|!
c>dc e2g|g^fe d2f|g2B dcA|G3-G2g|!
a2f f2a|g2e c2G|c2d edc|G3-G2G|!
A2B c2d|e2a/g/ H"H"f2e|(4d/e/d/^c/ (4d/A/f/d/ =c2B|c3-c2|]
